src/assets/img/icons/dusk/svg/download.svg

<svg height="128" viewBox="0 0 64 64" width="128" xmlns="http://www.w3.org/2000/svg"><path d="m57 49h-51a3 3 0 0 1 -3-3v-38a3 3 0 0 1 3-3h15l9 6h24a3 3 0 0 1 3 3z" fill="#faefde"/><path d="m6 5h16l7 7h-26v-4a3 3 0 0 1 3-3z" fill="#fff7f0"/><path d="m57 15h4a2 2 0 0 1 2 2v29a3 3 0 0 1 -3 3h-3a0 0 0 0 1 0 0v-34a0 0 0 0 1 0 0z" fill="#cda1a7"/><path d="m3 39h54a0 0 0 0 1 0 0v10a0 0 0 0 1 0 0h-51a3 3 0 0 1 -3-3v-7a0 0 0 0 1 0 0z" fill="#efd8be"/><g fill="#8d6c9f"><path d="m61 14h-3v-1a3 3 0 0 0 -3-3h-25.29a3 3 0 0 1 -2.11-.87l-3.73-3.68a5 5 0 0 0 -3.51-1.45h-15.36a3 3 0 0 0 -3 3v39a4 4 0 0 0 4 4h54a4 4 0 0 0 4-4v-29a3 3 0 0 0 -3-3zm-55 34a2 2 0 0 1 -2-2v-6h21a1 1 0 0 0 0-2h-21v-31a1 1 0 0 1 1-1h15.36a3 3 0 0 1 2.11.87l3.73 3.69a5 5 0 0 0 3.51 1.44h25.29a1 1 0 0 1 1 1v25h-17a1 1 0 0 0 0 2h17v6a3.94 3.94 0 0 0 .63 2zm56-2a2 2 0 0 1 -2 2 2.26 2.26 0 0 1 -2-2v-30h3a1 1 0 0 1 1 1z"/><path d="m6 42a1 1 0 0 0 -1 1v2a1 1 0 0 0 2 0v-2a1 1 0 0 0 -1-1z"/><path d="m11 42a1 1 0 0 0 -1 1v2a1 1 0 0 0 2 0v-2a1 1 0 0 0 -1-1z"/><path d="m16 42a1 1 0 0 0 -1 1v2a1 1 0 0 0 2 0v-2a1 1 0 0 0 -1-1z"/><path d="m21 42a1 1 0 0 0 -1 1v2a1 1 0 0 0 2 0v-2a1 1 0 0 0 -1-1z"/><path d="m26 42a1 1 0 0 0 -1 1v2a1 1 0 0 0 2 0v-2a1 1 0 0 0 -1-1z"/><path d="m38 42a1 1 0 0 0 -1 1v2a1 1 0 0 0 2 0v-2a1 1 0 0 0 -1-1z"/><path d="m43 42a1 1 0 0 0 -1 1v2a1 1 0 0 0 2 0v-2a1 1 0 0 0 -1-1z"/><path d="m48 42a1 1 0 0 0 -1 1v2a1 1 0 0 0 2 0v-2a1 1 0 0 0 -1-1z"/><path d="m53 42a1 1 0 0 0 -1 1v2a1 1 0 0 0 2 0v-2a1 1 0 0 0 -1-1z"/></g><path d="m35 27v25l4-4 4 4-11 11-11-11 4-4 4 4v-25z" fill="#c2cde7"/><path d="m32.71 63.71 11-11a1 1 0 0 0 0-1.41l-4-4a1 1 0 0 0 -1.41 0l-2.3 2.29v-22.59a1 1 0 0 0 -1-1h-6a1 1 0 0 0 -1 1v22.59l-2.29-2.29a1 1 0 0 0 -1.41 0l-4 4a1 1 0 0 0 0 1.41l11 11a1 1 0 0 0 1.41 0zm-10.3-11.71 2.59-2.59 3.29 3.29a1 1 0 0 0 1.71-.7v-24h4v24a1 1 0 0 0 1.71.71l3.29-3.3 2.59 2.59-9.59 9.59z" fill="#8d6c9f"/></svg>

<svg xmlns="http://www.w3.org/2000/svg" id="Layer_1" data-name="Layer 1" viewBox="0 0 64 64" width="128" height="128"><title>Dusk Part 1</title><path d="M57,49H6a3,3,0,0,1-3-3V8A3,3,0,0,1,6,5H21l9,6H54a3,3,0,0,1,3,3Z" style="fill:#faefde;"/><path d="M6,5H22l7,7H3V8A3,3,0,0,1,6,5Z" style="fill:#fff7f0;"/><path d="M57,15h4a2,2,0,0,1,2,2V46a3,3,0,0,1-3,3H57a0,0,0,0,1,0,0V15A0,0,0,0,1,57,15Z" style="fill:#cda1a7;"/><path d="M3,39H57a0,0,0,0,1,0,0V49a0,0,0,0,1,0,0H6a3,3,0,0,1-3-3V39A0,0,0,0,1,3,39Z" style="fill:#efd8be;"/><path d="M61,14H58V13a3,3,0,0,0-3-3H29.71a3,3,0,0,1-2.11-.87L23.87,5.45A5,5,0,0,0,20.36,4H5A3,3,0,0,0,2,7V46a4,4,0,0,0,4,4H60a4,4,0,0,0,4-4V17A3,3,0,0,0,61,14ZM6,48a2,2,0,0,1-2-2V40H25a1,1,0,0,0,0-2H4V7A1,1,0,0,1,5,6H20.36a3,3,0,0,1,2.11.87l3.73,3.69A5,5,0,0,0,29.71,12H55a1,1,0,0,1,1,1V38H39a1,1,0,0,0,0,2H56v6a3.94,3.94,0,0,0,.63,2Zm56-2a2,2,0,0,1-2,2,2.26,2.26,0,0,1-2-2V16h3a1,1,0,0,1,1,1Z" style="fill:#8d6c9f;"/><path d="M6,42a1,1,0,0,0-1,1v2a1,1,0,0,0,2,0V43A1,1,0,0,0,6,42Z" style="fill:#8d6c9f;"/><path d="M11,42a1,1,0,0,0-1,1v2a1,1,0,0,0,2,0V43A1,1,0,0,0,11,42Z" style="fill:#8d6c9f;"/><path d="M16,42a1,1,0,0,0-1,1v2a1,1,0,0,0,2,0V43A1,1,0,0,0,16,42Z" style="fill:#8d6c9f;"/><path d="M21,42a1,1,0,0,0-1,1v2a1,1,0,0,0,2,0V43A1,1,0,0,0,21,42Z" style="fill:#8d6c9f;"/><path d="M26,42a1,1,0,0,0-1,1v2a1,1,0,0,0,2,0V43A1,1,0,0,0,26,42Z" style="fill:#8d6c9f;"/><path d="M38,42a1,1,0,0,0-1,1v2a1,1,0,0,0,2,0V43A1,1,0,0,0,38,42Z" style="fill:#8d6c9f;"/><path d="M43,42a1,1,0,0,0-1,1v2a1,1,0,0,0,2,0V43A1,1,0,0,0,43,42Z" style="fill:#8d6c9f;"/><path d="M48,42a1,1,0,0,0-1,1v2a1,1,0,0,0,2,0V43A1,1,0,0,0,48,42Z" style="fill:#8d6c9f;"/><path d="M53,42a1,1,0,0,0-1,1v2a1,1,0,0,0,2,0V43A1,1,0,0,0,53,42Z" style="fill:#8d6c9f;"/><polygon points="35 27 35 52 39 48 43 52 32 63 21 52 25 48 29 52 29 27 35 27" style="fill:#c2cde7;"/><path d="M32.71,63.71l11-11a1,1,0,0,0,0-1.41l-4-4a1,1,0,0,0-1.41,0L36,49.59V27a1,1,0,0,0-1-1H29a1,1,0,0,0-1,1V49.59l-2.29-2.29a1,1,0,0,0-1.41,0l-4,4a1,1,0,0,0,0,1.41l11,11A1,1,0,0,0,32.71,63.71ZM22.41,52,25,49.41l3.29,3.29A1,1,0,0,0,30,52V28h4V52a1,1,0,0,0,1.71.71L39,49.41,41.59,52,32,61.59Z" style="fill:#8d6c9f;"/></svg>
